app/images/src/icons/fireworks.svg

<svg width="50" height="50" viewBox="0 0 50 50" fill="none" xmlns="http://www.w3.org/2000/svg">
<g clip-path="url(#clip0_235_46447)">
<rect width="50" height="50" fill="#FBE0E0"/>
<path d="M17.6641 14.7845C17.1016 15.136 16.6141 15.4313 16.5813 15.4454C16.5484 15.4548 16.0328 15.2532 15.4328 14.9954C14.8328 14.7329 14.2984 14.522 14.2375 14.522C13.9938 14.522 13.9984 14.5876 14.3266 15.886L14.6313 17.1095L13.8156 18.0329C13.1828 18.7454 13 18.9798 13 19.0829C13 19.172 13.0328 19.2235 13.1078 19.2517C13.1641 19.2751 13.7406 19.3313 14.3828 19.3735C15.1516 19.4204 15.5734 19.4673 15.6063 19.5048C15.6344 19.5376 15.9156 20.0017 16.2344 20.5454C16.7969 21.5063 16.8953 21.647 17.0125 21.647C17.1344 21.647 17.2188 21.4829 17.6406 20.4188C17.8797 19.8188 18.0906 19.3079 18.1094 19.2892C18.1281 19.2704 18.6531 19.1392 19.2859 18.9985C19.9141 18.8532 20.4672 18.7267 20.5094 18.7126C20.6031 18.6845 20.6547 18.5532 20.6172 18.4501C20.5984 18.4079 20.1672 18.0235 19.6516 17.597C18.8547 16.9313 18.7188 16.8001 18.7188 16.6876C18.7188 16.6173 18.7609 16.1298 18.8125 15.6001C18.9297 14.3767 18.9297 14.2595 18.8172 14.1938C18.7656 14.1704 18.7141 14.147 18.7047 14.147C18.6953 14.147 18.2266 14.4329 17.6641 14.7845Z" fill="url(#paint0_linear_235_46447)"/>
<path d="M26.4297 14.4001C26.3453 14.461 26.3453 14.4938 26.4016 15.1126C26.4531 15.661 26.4531 15.7688 26.3969 15.8063C26.3594 15.8344 26.1484 16.0126 25.9281 16.2001C25.2953 16.7344 25.3234 16.8188 26.1906 17.0063C26.5188 17.0766 26.7953 17.1423 26.8047 17.1516C26.8141 17.161 26.9172 17.4141 27.0391 17.7094C27.1609 18.0048 27.2828 18.2766 27.3109 18.3094C27.3391 18.3423 27.4141 18.3657 27.4797 18.3563C27.5781 18.3469 27.6531 18.2438 27.9063 17.8173C28.075 17.5266 28.225 17.2782 28.2391 17.2688C28.2531 17.2548 28.5391 17.2173 28.8719 17.1891C29.2047 17.161 29.5047 17.1188 29.5375 17.0907C29.6688 16.9782 29.5938 16.8188 29.1859 16.3688L28.7781 15.9188L28.8906 15.4407C28.9516 15.1829 29.0031 14.8735 29.0078 14.7563C29.0078 14.5641 28.9984 14.5454 28.8813 14.5313C28.8109 14.5219 28.5344 14.611 28.2156 14.7516L27.6719 14.9907L27.1422 14.6626C26.8469 14.4798 26.5891 14.3344 26.5656 14.3344C26.5375 14.3344 26.4766 14.3626 26.4297 14.4001Z" fill="url(#paint1_linear_235_46447)"/>
<path d="M24.3953 18.5297C24.2125 19.125 24.0485 19.8797 23.936 20.6625C23.7813 21.7406 23.8469 25.5281 24.025 25.875C24.0719 25.9688 24.2735 25.9875 24.325 25.9031C24.3438 25.875 24.4094 25.4578 24.4657 24.9844C24.7282 22.8844 25.2063 20.9766 25.8203 19.5891L26.0313 19.1156L25.8907 18.8391C25.811 18.6891 25.75 18.5438 25.75 18.511C25.75 18.4828 25.6938 18.45 25.6235 18.4313C25.225 18.3422 25.0938 18.3 24.8641 18.1735C24.7235 18.0985 24.5922 18.0375 24.5782 18.0375C24.5594 18.0375 24.4797 18.2578 24.3953 18.5297Z" fill="url(#paint2_linear_235_46447)"/>
<path d="M33.5828 19.4392C33.1796 20.236 33.1562 20.2782 33.0062 20.3017C32.9218 20.3204 32.5468 20.3767 32.1718 20.4282C31.2624 20.5595 31.2859 20.5501 31.2531 20.6907C31.2249 20.7985 31.2953 20.8829 31.8906 21.4829L32.5562 22.1532L32.4109 23.0298C32.3312 23.5126 32.2749 23.9485 32.289 23.9954C32.3453 24.1642 32.5703 24.0985 33.3531 23.6767L34.1171 23.2735L34.8999 23.6767C35.3312 23.9017 35.739 24.0845 35.8046 24.0845C36.0062 24.0845 36.0109 23.9532 35.8468 23.011L35.6968 22.1392L36.3484 21.5063C36.8874 20.986 37.0046 20.8501 36.9999 20.7423C36.9999 20.5642 36.9343 20.5454 35.9499 20.4048C35.4859 20.3392 35.1015 20.2782 35.0921 20.2735C35.0874 20.2642 34.9187 19.922 34.7218 19.5095C34.3234 18.6845 34.2671 18.6001 34.1124 18.6001C34.014 18.6001 33.9437 18.7126 33.5828 19.4392Z" fill="url(#paint3_linear_235_46447)"/>
<path d="M19.9938 20.3812C19.5719 20.4797 19.2203 20.5687 19.2109 20.5781C19.1875 20.6015 18.5781 22.1297 18.5781 22.1672C18.5781 22.1859 18.6859 22.364 18.8219 22.5656C18.9531 22.7719 19.2344 23.2781 19.4453 23.6906C20.4531 25.6687 21.3203 28.439 22.075 32.0484C22.2719 33.014 22.7031 35.4703 22.7734 36.0562C22.8156 36.3844 22.9328 36.539 23.0781 36.4594C23.1672 36.4125 23.1719 36.3562 23.1719 35.039C23.1719 31.05 22.7359 27.0703 21.925 23.7094C21.55 22.1531 20.9406 20.2219 20.8234 20.2078C20.7859 20.2078 20.4156 20.2828 19.9938 20.3812Z" fill="url(#paint4_linear_235_46447)"/>
<path d="M29.6172 22.4579C28.9563 23.0814 28.4031 23.6954 27.9672 24.2861C26.261 26.5876 25.1453 29.4329 24.6766 32.6861C24.5125 33.8298 24.4797 34.247 24.4516 35.5736L24.4235 36.872L24.5406 36.947C24.6297 37.0079 24.6906 37.0126 24.7797 36.9798C24.9203 36.9236 24.9016 36.9658 25.1172 36.0376C26.2516 31.1251 28.1781 27.3892 30.6953 25.2564L31.0844 24.9236L30.9391 24.6376C30.7469 24.2673 30.7235 23.8454 30.8547 23.147L30.9485 22.6548L30.7281 22.4298C30.6063 22.3033 30.4328 22.1392 30.3391 22.0689L30.1703 21.9329L29.6172 22.4579Z" fill="url(#paint5_linear_235_46447)"/>
<path d="M15.9484 27.136L15.5031 27.6095L14.8937 27.5157C14.5609 27.4688 14.2609 27.436 14.2281 27.4501C14.1953 27.4595 14.1484 27.511 14.1203 27.5626C14.0781 27.6376 14.125 27.7548 14.3781 28.2142L14.6875 28.7767L14.4437 29.2548C14.1625 29.8126 14.1203 29.9485 14.1812 30.0517C14.2375 30.1548 14.3687 30.1501 15.0062 30.0329L15.5406 29.9345L15.7093 30.0938C15.8031 30.1782 16.0234 30.3845 16.1968 30.5438C16.3656 30.7032 16.525 30.8345 16.5484 30.8345C16.7031 30.8345 16.7547 30.6985 16.8343 30.0845L16.914 29.4517L17.4109 29.1938C18.0062 28.8845 18.0625 28.8423 18.0625 28.6923C18.0625 28.5938 17.9922 28.547 17.4812 28.3032C17.1156 28.1298 16.8906 27.9985 16.8765 27.9423C16.8625 27.8954 16.8156 27.6376 16.7734 27.3657C16.689 26.8454 16.614 26.6626 16.4781 26.6626C16.4359 26.6626 16.1968 26.8735 15.9484 27.136Z" fill="url(#paint6_linear_235_46447)"/>
<path d="M19.0469 29.9393C18.9297 30.0565 18.7188 30.2158 18.5735 30.2908L18.3157 30.4268L18.2594 30.7971L18.1985 31.1674L18.5219 31.5752C19.4594 32.7518 20.2938 34.2002 21.0485 35.9674C21.2125 36.3518 21.3719 36.694 21.4 36.7315C21.4704 36.8159 21.7188 36.783 21.7844 36.6846C21.8454 36.5862 21.7469 35.9721 21.5032 34.9362C21.1797 33.5534 20.7625 32.3627 20.2141 31.2565C19.8672 30.558 19.3516 29.7002 19.286 29.719C19.2719 29.719 19.1641 29.8221 19.0469 29.9393Z" fill="url(#paint7_linear_235_46447)"/>
<path d="M34.3469 30.6937L33.9766 31.2047L33.2969 31.2187L32.6172 31.2328L32.6032 31.3641C32.5891 31.4672 32.6641 31.6031 32.9454 31.9875L33.3016 32.4844L33.1094 33.0375C32.7907 33.9281 32.8469 33.9891 33.7047 33.7078L34.3 33.5062L34.7875 33.8812C35.2938 34.2703 35.4579 34.3312 35.5469 34.1672C35.5704 34.1156 35.5938 33.8016 35.5938 33.4734V32.8687L36.0672 32.5453C36.5594 32.2078 36.6954 32.0719 36.6438 31.9453C36.611 31.8562 36.5969 31.8516 35.9219 31.6312L35.3875 31.4578L35.2141 30.8906C34.9375 29.9719 34.8766 29.9578 34.3469 30.6937Z" fill="url(#paint8_linear_235_46447)"/>
<path d="M30.3531 31.7907C28.4078 32.4798 27.0812 33.5579 26.3219 35.0767C26.0781 35.5642 25.8906 36.0938 25.8906 36.3001C25.8906 36.5063 26.0266 36.647 26.2328 36.647C26.4062 36.647 26.4859 36.5767 26.8375 36.1079C27.1562 35.686 27.7937 35.0063 28.1641 34.6923C29.0734 33.9235 29.9078 33.4876 30.9719 33.2251L31.4875 33.0985L31.5484 32.911C31.6094 32.7282 31.6094 32.7235 31.4031 32.4095C31.2859 32.2407 31.1641 32.0063 31.1359 31.8985C31.1078 31.7907 31.075 31.6735 31.0656 31.6407C31.0422 31.5563 30.9859 31.5704 30.3531 31.7907Z" fill="url(#paint9_linear_235_46447)"/>
</g>
<defs>
<linearGradient id="paint0_linear_235_46447" x1="13" y1="17.897" x2="20.6295" y2="17.897" gradientUnits="userSpaceOnUse">
<stop stop-color="#E81212"/>
<stop offset="1" stop-color="#FCCD05"/>
</linearGradient>
<linearGradient id="paint1_linear_235_46447" x1="25.4916" y1="16.3464" x2="29.5966" y2="16.3464" gradientUnits="userSpaceOnUse">
<stop stop-color="#E81212"/>
<stop offset="1" stop-color="#FCCD05"/>
</linearGradient>
<linearGradient id="paint2_linear_235_46447" x1="23.8491" y1="21.9973" x2="26.0313" y2="21.9973" gradientUnits="userSpaceOnUse">
<stop stop-color="#E81212"/>
<stop offset="1" stop-color="#FCCD05"/>
</linearGradient>
<linearGradient id="paint3_linear_235_46447" x1="31.2479" y1="21.3423" x2="37.0001" y2="21.3423" gradientUnits="userSpaceOnUse">
<stop stop-color="#E81212"/>
<stop offset="1" stop-color="#FCCD05"/>
</linearGradient>
<linearGradient id="paint4_linear_235_46447" x1="18.5781" y1="28.3439" x2="23.1719" y2="28.3439" gradientUnits="userSpaceOnUse">
<stop stop-color="#E81212"/>
<stop offset="1" stop-color="#FCCD05"/>
</linearGradient>
<linearGradient id="paint5_linear_235_46447" x1="24.4235" y1="29.4665" x2="31.0844" y2="29.4665" gradientUnits="userSpaceOnUse">
<stop stop-color="#E81212"/>
<stop offset="1" stop-color="#FCCD05"/>
</linearGradient>
<linearGradient id="paint6_linear_235_46447" x1="14.1066" y1="28.7485" x2="18.0625" y2="28.7485" gradientUnits="userSpaceOnUse">
<stop stop-color="#E81212"/>
<stop offset="1" stop-color="#FCCD05"/>
</linearGradient>
<linearGradient id="paint7_linear_235_46447" x1="18.1985" y1="33.2492" x2="21.802" y2="33.2492" gradientUnits="userSpaceOnUse">
<stop stop-color="#E81212"/>
<stop offset="1" stop-color="#FCCD05"/>
</linearGradient>
<linearGradient id="paint8_linear_235_46447" x1="32.6016" y1="32.2108" x2="36.654" y2="32.2108" gradientUnits="userSpaceOnUse">
<stop stop-color="#E81212"/>
<stop offset="1" stop-color="#FCCD05"/>
</linearGradient>
<linearGradient id="paint9_linear_235_46447" x1="25.8906" y1="34.1199" x2="31.5838" y2="34.1199" gradientUnits="userSpaceOnUse">
<stop stop-color="#E81212"/>
<stop offset="1" stop-color="#FCCD05"/>
</linearGradient>
<clipPath id="clip0_235_46447">
<rect width="50" height="50" rx="25" fill="white"/>
</clipPath>
</defs>
</svg>

<svg width="50" height="50" fill="none" xmlns="http://www.w3.org/2000/svg"><g clip-path="url(#a)"><path fill="#FBE0E0" d="M0 0h50v50H0z"/><path d="M17.664 14.784c-.562.352-1.05.647-1.083.661-.033.01-.548-.192-1.148-.45-.6-.262-1.135-.473-1.195-.473-.244 0-.24.066.089 1.364l.304 1.224-.815.923c-.633.712-.816.947-.816 1.05 0 .089.033.14.108.169.056.023.633.08 1.275.122.769.046 1.19.093 1.223.13.028.034.31.498.628 1.041.563.961.661 1.102.778 1.102.122 0 .207-.164.629-1.228.239-.6.45-1.111.468-1.13.02-.019.544-.15 1.177-.29.628-.146 1.181-.272 1.223-.286.094-.029.146-.16.108-.263-.019-.042-.45-.427-.965-.853-.797-.666-.933-.797-.933-.91 0-.07.042-.557.093-1.087.118-1.223.118-1.34.005-1.406a.764.764 0 0 0-.112-.047c-.01 0-.478.286-1.04.637Z" fill="url(#b)"/><path d="M26.43 14.4c-.085.061-.085.094-.028.713.051.548.051.656-.005.693-.038.028-.249.207-.469.394-.633.534-.605.619.263.806.328.07.604.136.614.146.01.009.112.262.234.557.122.296.244.568.272.6.028.033.103.057.169.047.098-.01.173-.112.426-.539.169-.29.319-.539.333-.548.014-.014.3-.052.633-.08.333-.028.633-.07.666-.098.13-.113.056-.272-.352-.722l-.408-.45.113-.478c.06-.258.112-.568.117-.685 0-.192-.01-.21-.127-.225-.07-.01-.347.08-.665.22l-.544.24-.53-.328c-.295-.183-.553-.329-.576-.329a.294.294 0 0 0-.136.066Z" fill="url(#c)"/><path d="M24.395 18.53c-.183.595-.346 1.35-.459 2.133-.155 1.078-.09 4.865.089 5.212.047.094.248.113.3.028.019-.028.084-.445.14-.919.263-2.1.741-4.007 1.355-5.395l.211-.473-.14-.277c-.08-.15-.141-.295-.141-.328 0-.028-.056-.061-.127-.08-.398-.089-.53-.131-.759-.258a2.205 2.205 0 0 0-.286-.135c-.019 0-.098.22-.183.492Z" fill="url(#d)"/><path d="M33.583 19.44c-.403.796-.427.838-.577.862-.084.018-.46.075-.834.126-.91.131-.886.122-.919.263-.028.108.042.192.638.792l.665.67-.145.877c-.08.483-.136.918-.122.965.056.17.281.104 1.064-.318l.764-.404.783.404c.431.225.839.407.905.407.201 0 .206-.13.042-1.073l-.15-.872.651-.633c.54-.52.657-.656.652-.764 0-.178-.066-.197-1.05-.337a24.652 24.652 0 0 1-.858-.132 61.625 61.625 0 0 1-.37-.764c-.399-.825-.455-.909-.61-.909-.098 0-.168.113-.53.84Z" fill="url(#e)"/><path d="M19.994 20.381c-.422.099-.774.188-.783.197a36.183 36.183 0 0 0-.633 1.59c0 .018.108.196.244.398.131.206.412.712.623 1.125 1.008 1.978 1.875 4.748 2.63 8.357.197.966.628 3.422.698 4.008.043.328.16.483.305.403.09-.047.094-.103.094-1.42 0-3.989-.436-7.969-1.247-11.33-.375-1.556-.984-3.487-1.102-3.501-.037 0-.407.075-.83.173Z" fill="url(#f)"/><path d="M29.617 22.458a13.925 13.925 0 0 0-1.65 1.828c-1.706 2.302-2.822 5.147-3.29 8.4-.165 1.144-.197 1.561-.225 2.888l-.029 1.298.118.075c.089.06.15.066.239.033.14-.056.122-.014.337-.942 1.135-4.913 3.061-8.649 5.578-10.782l.39-.332-.146-.286c-.192-.37-.215-.793-.084-1.491l.093-.492-.22-.225a4.224 4.224 0 0 0-.389-.361l-.169-.136-.553.525Z" fill="url(#g)"/><path d="m15.948 27.136-.445.474-.61-.094c-.332-.047-.632-.08-.665-.066-.033.01-.08.061-.108.113-.042.075.005.192.258.651l.31.563-.244.478c-.282.558-.324.694-.263.797.057.103.188.098.825-.02l.535-.098.168.16c.094.084.314.29.488.45.169.16.328.29.351.29.155 0 .207-.136.286-.75l.08-.632.497-.258c.595-.31.651-.352.651-.502 0-.098-.07-.145-.58-.389-.366-.173-.591-.305-.605-.36a8.847 8.847 0 0 1-.104-.577c-.084-.52-.159-.703-.295-.703-.042 0-.281.21-.53.473Z" fill="url(#h)"/><path d="M19.047 29.94a2.298 2.298 0 0 1-.474.35l-.257.137-.057.37-.06.37.323.408c.937 1.177 1.772 2.625 2.527 4.392.163.385.323.727.351.764.07.085.319.052.384-.046.061-.099-.037-.713-.28-1.749-.324-1.383-.742-2.573-1.29-3.68-.347-.698-.862-1.556-.928-1.537-.014 0-.122.103-.24.22Z" fill="url(#i)"/><path d="m34.347 30.694-.37.51-.68.015-.68.014-.014.131c-.014.103.061.24.342.623l.357.497-.193.553c-.318.891-.262.952.596.67l.595-.2.488.374c.506.39.67.45.759.286.023-.051.047-.365.047-.694v-.604l.473-.324c.492-.337.628-.473.577-.6-.033-.089-.047-.093-.722-.314l-.534-.173-.174-.567c-.276-.92-.337-.933-.867-.197Z" fill="url(#j)"/><path d="M30.353 31.79c-1.945.69-3.272 1.768-4.031 3.287-.244.487-.431 1.017-.431 1.223 0 .206.136.347.342.347.173 0 .253-.07.604-.54a11.27 11.27 0 0 1 1.327-1.415c.91-.769 1.744-1.204 2.808-1.467l.515-.127.061-.187c.061-.183.061-.188-.145-.502a2.167 2.167 0 0 1-.267-.51 13.42 13.42 0 0 0-.07-.258c-.024-.085-.08-.07-.713.15Z" fill="url(#k)"/></g><defs><linearGradient id="b" x1="13" y1="17.897" x2="20.63" y2="17.897" gradientUnits="userSpaceOnUse"><stop stop-color="#E81212"/><stop offset="1" stop-color="#FCCD05"/></linearGradient><linearGradient id="c" x1="25.492" y1="16.346" x2="29.597" y2="16.346" gradientUnits="userSpaceOnUse"><stop stop-color="#E81212"/><stop offset="1" stop-color="#FCCD05"/></linearGradient><linearGradient id="d" x1="23.849" y1="21.997" x2="26.031" y2="21.997" gradientUnits="userSpaceOnUse"><stop stop-color="#E81212"/><stop offset="1" stop-color="#FCCD05"/></linearGradient><linearGradient id="e" x1="31.248" y1="21.342" x2="37" y2="21.342" gradientUnits="userSpaceOnUse"><stop stop-color="#E81212"/><stop offset="1" stop-color="#FCCD05"/></linearGradient><linearGradient id="f" x1="18.578" y1="28.344" x2="23.172" y2="28.344" gradientUnits="userSpaceOnUse"><stop stop-color="#E81212"/><stop offset="1" stop-color="#FCCD05"/></linearGradient><linearGradient id="g" x1="24.424" y1="29.466" x2="31.084" y2="29.466" gradientUnits="userSpaceOnUse"><stop stop-color="#E81212"/><stop offset="1" stop-color="#FCCD05"/></linearGradient><linearGradient id="h" x1="14.107" y1="28.748" x2="18.063" y2="28.748" gradientUnits="userSpaceOnUse"><stop stop-color="#E81212"/><stop offset="1" stop-color="#FCCD05"/></linearGradient><linearGradient id="i" x1="18.198" y1="33.249" x2="21.802" y2="33.249" gradientUnits="userSpaceOnUse"><stop stop-color="#E81212"/><stop offset="1" stop-color="#FCCD05"/></linearGradient><linearGradient id="j" x1="32.602" y1="32.211" x2="36.654" y2="32.211" gradientUnits="userSpaceOnUse"><stop stop-color="#E81212"/><stop offset="1" stop-color="#FCCD05"/></linearGradient><linearGradient id="k" x1="25.891" y1="34.12" x2="31.584" y2="34.12" gradientUnits="userSpaceOnUse"><stop stop-color="#E81212"/><stop offset="1" stop-color="#FCCD05"/></linearGradient><clipPath id="a"><rect width="50" height="50" rx="25" fill="#fff"/></clipPath></defs></svg>
